X:1
T:Sechs Lieder
T:Rastlose Liebe
T:Robert Schumann
T:J. W. v. Goethe
T:Rastlose Liebe
T:Op. 33,5
T:CPDL - Creative Commons Attribution Non Commercial 3.0
T:CPDL - Creative Commons Attribution Non Commercial 3.0
T:CPDL - Creative Commons Attribution Non Commercial 3.0
T:CPDL - Creative Commons Attribution Non Commercial 3.0
T:CPDL - Creative Commons Attribution Non Commercial 3.0
T:CPDL - Creative Commons Attribution Non Commercial 3.0
T:CPDL - Creative Commons Attribution Non Commercial 3.0
T:CPDL - Creative Commons Attribution Non Commercial 3.0
C:Robert Schumann
Z:J. W. v. Goethe
Z:CPDL - Creative Commons Attribution Non Commercial 3.0
%%score [ 1 2 3 4 ]
L:1/8
Q:1/4=100
M:6/8
K:Eb
V:1 treble-8 nm="Tenor\n1"
V:2 treble-8 nm="Tenor\n2"
V:3 bass nm="Bass\n1"
V:4 bass nm="Bass\n2"
V:1
!f!"^Rasch und sehr markiert" B | B2 g feB | B3- B2 B | B2 g feB | B3- B2 B | B2 c ddd | %6
w: Dem|Schnee, dem Re- gen, dem|Schnee, _ dem|Wind ent- ge- gen, dem|Wind, _ im|Dampf der Klüf- te, durch|
 d2 e dd^f | !>!^f2 =e dd=a | !>!=a2 a dd z | _a2 a a3 | f2 f fff | f3- f2 f | f3!f! BBB | %13
w: Ne- bel- düf- te, dem|Schnee, dem Re- gen, dem|Wind ent- ge- gen,|im- mer zu,|im- mer zu oh- ne|Rast _ und|Ruh! Lie- ber durch|
 e2 e efg | e2 e BBB | e>ee efg | e2 e !>!_d3- | d3 _d2 d | (_d2 c) c2!<(! c | _e3!<)! e2 e | %20
w: Lei- den will ich mich|schla- gen, als so viel|Freu- den des Le- bens er-|tra- gen. Al-|* les das|Nei- * gen, vom|Her- zen zu|
 e2 d !>!_a3- | a3!p! g2 g | f3 e3 | d3[Q:1/4=90]"^ritard." c2 c | %24
w: Her- zen, ach,|_ wie so|ei- gen|schaf- fet das|
 =B3 d2!f![Q:1/4=100]"^a tempo" _B | B2 g feB | B3- B2 B | B2 g feB | B3- B2 B | B2 c ddd | %30
w: Schmer- zen! Dem|Schnee, dem Re- gen, dem|Schnee, _ dem|Wind ent- ge- gen, dem|Wind, _ im|Dampf der Klüf- te, durch|
 d2 e dd^f- | f2 =e d2 =a- | a2 =a d2 _a | a2 a a2 a | f>ff f2 f |[Q:1/4=90]"^ritard." e3 e2 e | %36
w: Ne- bel- düf- te, im-|* mer zu, im-|* mer zu! Wie|soll ich flie- hen!|Wäl- der- wärts zie- hen?|Al- les ver-|
 d2 f[Q:1/4=100]"^a tempo""^SOLO" !>!g3- |!>(! g3 g2 g!>)! |!p! a3 g3 | f3 g2 g | a3 z3 | %41
w: ge- bens, Kro-|* ne des|Le- bens,|Glück oh- ne|Ruh',|
!p! f3 d2 B | e6 | e3 g2 f | d2 z"^TUTTI"!mf!!mf! [cg]3- | [cg]3 [cg]2 [cg] | [ca]3 [eg]3 | %47
w: Lie- be, bist|du,|Lie- be, bist|du, Kro-|* ne des|Le- bens,|
 [ef]3"^accel."!<(! [ef]2 [ef] | [ef]6!<)! | [e^f]3"^accel."!<(! [ef]2 [ef] | %50
w: Glück oh- ne|Ruh'!|Glück oh- ne|
 [e^f]3!<)! [ef]2 [eg] | [eg]3 z2!ff! c | c2 g feg | g3- g2 e | e2 e eeB | !>!B3 !>!_d3 | %56
w: Ruh', oh- ne|Ruh'! Dem|Schnee, dem Re- gen, dem|Wind, _ dem|Wind ent- ge- gen, im|Dampf der|
 c3 d2!<(! =e | f3- (fg)a!<)! ||[M:2/4]!f! aa !>!aa | a2 !>!ff | f2 !>!dd ||[M:6/8] d2 z !>!g3- | %62
w: Klüf- te, durch|Ne- * * bel-|düf- te, im- mer|zu, im- mer|zu, im- mer|zu! Kro-|
!>(! g3 f2 g!>)! | a3 g3 | f3 g2 g | a2 z !>!d3- |!>(! d3 d2 d!>)! | e2 z !>!=e3- | %68
w: * ne des|Le- bens,|Glück oh- ne|Ruh', Lie-|* be bist|du, Lie-|
!>(! e3 =e2 e!>)! | f2 z !>!f3- | f3 B2 z | z3 !>!^f3- | f3 =A2 !fermata!z | %73
w: * be bist|du, Lie-|* be,|Lie-|* be,|
!ff![Q:1/4=120]"^Schneller" g3 g2 g | a3 d2 d | e2 z g3- |!<(! g3 g2 g!<)! |!>(! !fermata!g6 | %78
w: Kro- ne des|Le- bens bist|du, Kro-|* ne des|Le-|
 e2!>)! z z2 |] %79
w: bens!|
V:2
!f! B | B2 g feG | G3- G2 B | B2 g feG | G3- G2 G | G2 G ^FFG | G2 c =AAd | !>!d2 =A AA^c | %8
w: ||||||||
 !>!^c2 c dd z | =f2 f f3 | _A2 A AAA | =A3- A2 A | B3!f! BBB | e2 e BBB | B2 B BBB | B>BB BBB | %16
w: ||||||||
 B2 B !>!B3- | B3 B2 B | (B2 =A) A2!<(! A | c3!<)! c2 c | c2 =B !>!B3 |!p! =B3 c2 c | %22
w: ||||* * ach,|ach * *|
 (c2 =B) (c2 G) | (G2 D) =E2 ^F | G3 G2!f! _B | B2 g feG | G3- G2 B | B2 g feG | G3- G2 G | %29
w: |||||||
 G2 G ^FFG | G2 c =AAd- | d2 =A A2 ^c- | c2 ^c d2 =f | f2 f f2 f | A>AA A2 A | =A3 A2 A | %36
w: |||||||
 B2 B !>!B3- |!>(! B3 B2 B!>)! |!p! A3 _d3 | c3 B2 B | A3 z3 | z6 |!p! _d3 d2 d | (_d2 c) (B2 A) | %44
w: ||||||Lie- be, bist|du, _ bist _|
 A2 z!mf! B3- | B3 B2 B | A3 B3 | c3!<(! c2 c | c6!<)! | c3!<(! c2 c | c3-!<)! c2!ff! B | %51
w: _||||||Ruh', _ Dem|
 B2 g fee | e3- e2 B | B6 | =A3- A2 B | !>!B3 !>!_d3 | c3 c2!<(! c | c3- c2 c!<)! || %58
w: Schnee, dem Re- gen, dem|Wind _ ent-|ge-|gen, _ im||||
[M:2/4]!f! BB !>!ff | f2 !>!dd | d2 !>!dd ||[M:6/8] d2 z !>!B3- |!>(! B3 B2 B!>)! | A3 _d3 | %64
w: ||||||
 c3 B2 B | A2 z !>!A3- |!>(! A3 A2 A!>)! | =A2 z !>!B3- |!>(! B3 B2 B!>)! | B2 z z3 |!p! B3 B2 z | %71
w: ||||||Lie- be,|
 z6 |"^cresc." =A3 A2 !fermata!z |!ff! (B2 _d) c2 B | (A2 B) c2 A | G2 z B3- |!<(! B3 B2 B!<)! | %77
w: |Lie- be,|||||
!>(! !fermata!B6 | G2!>)! z z2 |] %79
w: ||
V:3
!f! B, | B,3- B,2 B,, | B,,2 G, F,E,B, | B,3- B,2 B,, | B,,2 G, F,E,E, | E,2 G, =A,A,G, | %6
w: Dem|Schnee, _ dem|Schnee, dem Re- gen, dem|Wind _ dem|Wind ent- ge- gen, im|Dampf der Klüf- te, durch|
 G,2 G, ^F,F,=A, | !>!=A,2 G, ^F,F,F, | !>!^F,2 =E, D,D, z | z3 =F,2 F, | F,3 F,2 F, | %11
w: Ne- bel- düf- te, dem|Schnee, dem Re- gen, dem|Wind ent- ge- gen,|im- mer|zu, im- mer|
 E,E,E, E,2 E, | D,3!f! B,,B,,B,, | E,2 E, G,G,G, | G,2 G, G,A,B, | G,>G,G, G,G,G, | %16
w: zu oh- ne Rast und|Ruh! Lie- ber durch|Lei- den will ich mich|schla- gen, als so viel|Freu- den des Le- bens er-|
 G,2 G, !>!G,3- | G,3 G,2 G, | (G,2 =A,) A,2!<(! A, | =A,3!<)! A,2 A, | =A,2 G, !>!_A,3- | %21
w: tra- gen. Al-|* les das|Nei- * gen, vom|Her- zen zu|Her- zen, ach,|
 A,3!p! G,2 G, | G,3 G,3 | G,3 G,2 G, | G,3 =B,2!f! _B, | B,3- B,2 B,, | B,,2 G, F,E,B, | %27
w: _ wie so|ei- gen|schaf- fet das|Schmer- zen! Dem|Schnee, _ dem|Schnee, dem Re- gen, dem|
 B,3- B,2 B,, | B,,2 G, F,E,E, | E,2 G, =A,A,G, | G,2 G, ^F,F, z | =A,2 G, ^F,2 z | %32
w: Wind, _ dem|Wind ent- ge- gen, im|Dampf der Klüf- te, durch|Ne- bel- düf- te,|im- mer zu,|
 ^F,2 =E, D,2 z | =F,F,F, F,2 F, | F,>F,F, F,2 F, | F,3 F, F,2 | F,2 D, !>!E,3- | %37
w: im- mer zu!|Wie soll ich flie- hen!|Wäl- der- wärts zie- hen?|Al- les ver-|ge- bens, Kro-|
!>(! E,3 E,2 E,!>)! |!p! E,3 =E,3 | F,3 =E,2 E, | F,3 z3 | z6 |!p! E,3 E,2 E, | E,3 (=E,2 F,) | %44
w: * ne des|Le- bens,|Glück oh- ne|Ruh',||Lie- be, bist|du, bist _|
 F,2 z!mf! =E,3- | E,3 =E,2 E, | F,3 _E,3 | E,6 |!<(! E,3!<)! E,2 E, | E,6 | E,3 E,2 E, | E,6- | %52
w: du, Kro-|* ne des|Le- bens,|Glück,|Glück oh- ne|Ruh'!|Glück oh- ne|Ruh'!|
 E,3- E,2!ff! B,, | B,,2 G, F,E,E, | E,3 E,2 B,, | !>!B,,3 !>!_D,3 | (C,2 B,) B,2!<(! B, | %57
w: _ _ Dem|Schnee, dem Re- gen ent-|ge- gen, im|Dampf der|Klüf- * te, durch|
 A,3- A,2 G,!<)! ||[M:2/4]!f! F,F, z2 |!f! !>!A,A, A,2 | !>!F,F, F,F, ||[M:6/8] F,2 z !>!E,3- | %62
w: Ne- * bel-|düf- te,|im- mer zu,|im- mer, im- mer|zu! Kro-|
!>(! E,3 E,2 E,!>)! | E,3 =E,3 | F,3 =E,2 E, | F,2 z !>!F,3- |!>(! F,3 F,2 F,!>)! | %67
w: * ne des|Le- bens,|Glück oh- ne|Ruh', Lie-|* be bist|
 ^F,2 z !>!G,3- |!>(! G,3 G,2 G,!>)! | A,2 z z3 |!p! A,3 A,2 z | z6 |"^cresc." E,3 E,2 !fermata!z | %73
w: du, Lie-|* be bist|du,|Lie- be,||Lie- be,|
!ff! E,3 =E,2 E, | (F,2 G,) A,2 B, | B,2 z E3- |!<(! E3 E2 E!<)! |!>(! !fermata!E6 | %78
w: Kro- ne des|Le- * bens bist|du, Kro-|* ne des|Le-|
 E,2!>)! z z2 |] %79
w: bens!|
V:4
!f! G, | G,3- G,2 B,, | B,,2 G, F,E,G, | G,3- G,2 B,, | B,,2 G, F,E,E, | E,2 E, D,D,B,, | %6
w: ||||||
 B,,2 C, D,D,=A, | !>!=A,2 =A,, D,D,A, | !>!=A,2 =A,, D,D, z | z3 B,,2 B,, | _D,3 D,2 D, | %11
w: |||||
 _C,C,C, C,2 C, | B,,3!f! B,,B,,B,, | E,2 E, B,,B,,B,, | E,2 E, E,F,G, | E,>E,E, B,,B,,B,, | %16
w: |||||
 E,2 E, !>!=E,3- | E,3 =E,2 E, | (=E,2 F,) F,2!<(! F, | ^F,3!<)! F,2 F, | ^F,2 G, !>!=F,3 | %21
w: ||||* * ach,|
!p! F,3 E,2 E, | D,3 C,3 | B,,3 =A,,2 A,, | G,,3 G,,2!f! G, | G,3- G,2 B,, | B,,2 G, F,E,G, | %27
w: ach * *||||||
 G,3- G,2 B,, | B,,2 G, F,E,E, | E,2 E, D,D,B,, | B,,2 C, D,D, z | =A,2 =A,, D,2 z | %32
w: |||||
 =A,2 =A,, D,2 z | B,,B,,B,, B,,2 B,, | _D,>D,D, D,2 D, | _C,3 C,2 C, | B,,2 B,, !>!_D,3- | %37
w: |||||
!>(! D,3 _D,2 D,!>)! |!p! C,3 B,,3 | A,,3 C,2 C, | F,,3 z3 | z6 |!p! G,,3 G,,2 G,, | %43
w: ||||||
 A,,3 (A,,2 F,,) | B,,2 z!mf! C,3- | C,3 C,2 C, | F,,3 G,,3 | A,,6 |!<(! A,,3!<)! A,,2 A,, | %49
w: ||||||
 =A,,6 | =A,,3 A,,2 B,, | (B,,6 | =A,,3-) A,,2 B,, | B,,3- B,,2!ff! C, | C,2 G, F,E,B,, | %55
w: |||* * Dem|Schnee, _ dem|Wind ent- ge- gen, *|
 !>!B,,3 !>!_D,3 | (C,2 B,) A,2!<(! G, | F,3- F,2 E,!<)! ||[M:2/4]!f! D,D, z2 |!f! !>!F,F, F,2 | %60
w: |||||
 !>!D,D, B,,B,, ||[M:6/8] B,,2 z !>!_D,3- |!>(! D,3 _D,2 D,!>)! | C,3 B,,3 | A,,3 C,2 C, | %65
w: |||||
 F,,2 z !>!=B,,3- |!>(! B,,3 =B,,2 B,,!>)! | C,2 z !>!^C,3- |!>(! C,3 ^C,2 C,!>)! | D,2 z z3 | %70
w: |||||
!p! D,3 D,2 z | z6 |"^cresc." C,3 C,2 !fermata!z |!ff!!ff! [B,,B,]3 [B,,B,]2 [B,,B,] | %74
w: ||||
 [B,,B,]3 [B,,B,]2 [B,,B,] | E,2 z E,3- |!<(! E,3 E,2 E,!<)! |!>(! !fermata!E,6 | E,2!>)! z z2 |] %79
w: |||||

